build/img/quality.svg

<svg width="70" height="70" viewBox="0 0 70 70" fill="none" xmlns="http://www.w3.org/2000/svg">
<path d="M13.5625 26.3594L11.4844 29.9687L34.8906 56.6562C35 56.7656 35.1094 56.7656 35.1094 56.6562L58.5156 29.9687L52.6094 19.7969H23.625" stroke="white" stroke-width="2" stroke-miterlimit="10"/>
<path d="M11.375 29.9688H58.625" stroke="white" stroke-width="2" stroke-miterlimit="10"/>
<path d="M35 56.7656L24.1719 32.1562" stroke="white" stroke-width="2" stroke-miterlimit="10"/>
<path d="M35 56.2188L45.5 32.1562" stroke="white" stroke-width="2" stroke-miterlimit="10"/>
<path d="M35 32.1562V56.2188" stroke="white" stroke-width="2" stroke-miterlimit="10"/>
<path d="M29.75 19.3594L23.5156 27.8906L21.875 25.7031" stroke="white" stroke-width="2" stroke-miterlimit="10"/>
<path d="M41.0156 19.3594L34.7812 27.8906L29.2031 20.6719" stroke="white" stroke-width="2" stroke-miterlimit="10"/>
<path d="M52.1719 19.3594L46.0469 27.8906L40.4688 20.6719" stroke="white" stroke-width="2" stroke-miterlimit="10"/>
<path d="M17.1719 13.2344V16.2969" stroke="white" stroke-width="2" stroke-miterlimit="10"/>
<path d="M22.8594 16.5156L20.2344 18.0469" stroke="white" stroke-width="2" stroke-miterlimit="10"/>
<path d="M22.8594 23.0781L20.2344 21.5469" stroke="white" stroke-width="2" stroke-miterlimit="10"/>
<path d="M17.1719 26.3594V23.2969" stroke="white" stroke-width="2" stroke-miterlimit="10"/>
<path d="M11.4844 23.0781L14.1094 21.5469" stroke="white" stroke-width="2" stroke-miterlimit="10"/>
<path d="M11.4844 16.5156L14.1094 18.0469" stroke="white" stroke-width="2" stroke-miterlimit="10"/>
</svg>

<svg width="70" height="70" fill="none" xmlns="http://www.w3.org/2000/svg"><path d="M13.563 26.36l-2.079 3.609 23.407 26.687c.109.11.218.11.218 0L58.516 29.97l-5.907-10.172H23.625m-12.25 10.171h47.25M35 56.766l-10.828-24.61M35 56.219l10.5-24.063m-10.5 0V56.22" stroke="#fff" stroke-width="2" stroke-miterlimit="10"/><path d="M29.75 19.36l-6.234 8.53-1.641-2.187m19.141-6.343l-6.235 8.53-5.578-7.218m22.969-1.312l-6.125 8.53-5.578-7.218m-23.297-7.438v3.063m5.688.219l-2.626 1.53m2.626 5.032l-2.626-1.531m-3.062 4.813v-3.063m-5.688-.219l2.625-1.531m-2.625-5.031l2.625 1.53" stroke="#fff" stroke-width="2" stroke-miterlimit="10"/></svg>
